img/price_2.svg

<svg width="211" height="211" viewBox="0 0 211 211" fill="none" xmlns="http://www.w3.org/2000/svg">
<path d="M69.1027 33.3375L81.4778 11.6969L94.231 16.5967L80.8246 40.0406L69.1027 33.3375Z" fill="#3C3D75"/>
<g filter="url(#filter0_d)">
<path d="M65.1877 -7.9417L97.6067 -64.6333L108.397 -51.577L86.0079 -12.4249C83.2663 -7.63064 84.9303 -1.52156 89.7246 1.22005L93.3203 3.27627C98.1146 6.01789 99.7787 12.127 97.0371 16.9213L69.9306 64.3228L62.651 65.5444L85.0152 26.4358C87.7568 21.6415 86.0928 15.5324 81.2985 12.7908L68.9044 5.7033C64.1101 2.96168 62.4461 -3.14739 65.1877 -7.9417Z" fill="#6CB2C3"/>
</g>
<g filter="url(#filter1_d)">
<ellipse cx="71.4231" cy="51.627" rx="9.98289" ry="15.3877" transform="rotate(27.5371 71.4231 51.627)" fill="#3C3D75"/>
</g>
<g filter="url(#filter2_d)">
<path d="M24.4564 49.6864L37.6089 14.1318L80.4391 38.6242C80.4391 38.6242 81.7255 44.7443 76.3114 54.2121C71.6708 62.3273 65.2281 65.224 65.2281 65.224L44.6769 70.8219L24.4564 49.6864Z" fill="#6CB2C3"/>
</g>
<g filter="url(#filter3_d)">
<path d="M106.943 -49.9093L97.6065 -64.6332L194.407 -67.1602C196.787 -67.2223 199.112 -66.433 200.962 -64.9341L210.238 -57.4205C213.503 -54.775 214.767 -50.3699 213.399 -46.3958L167.259 87.6729L155.537 80.9698L191.395 -36.0892C193.35 -42.4698 188.626 -48.9382 181.953 -49.0175L106.943 -49.9093Z" fill="#6CB2C3"/>
</g>
<g filter="url(#filter4_d)">
<path d="M149.018 118.522C155.283 107.566 169.244 103.764 180.199 110.029L261.519 156.532C263.917 157.902 264.749 160.957 263.378 163.354L245.654 194.348C244.284 196.745 241.229 197.577 238.832 196.206L157.512 149.703C146.556 143.438 142.753 129.478 149.018 118.522Z" fill="#6CB2C3"/>
</g>
<g filter="url(#filter5_d)">
<rect x="154.957" y="78.8433" width="124.645" height="14.5419" rx="5" transform="rotate(29.763 154.957 78.8433)" fill="#6CB2C3"/>
</g>
<g filter="url(#filter6_d)">
<path d="M47.7006 83.3183L43.0044 63.2828C43.0044 63.2828 46.179 59.8395 51.3801 59.0983C57.2423 58.2629 62.3299 62.9668 62.3299 62.9668L65.4806 81.5202L47.7006 83.3183Z" fill="#6CB2C3"/>
</g>
<ellipse cx="56.4248" cy="81.8465" rx="5.4526" ry="9.07767" transform="rotate(80.4495 56.4248 81.8465)" fill="#3C3D75"/>
<g filter="url(#filter7_d)">
<ellipse cx="31.6982" cy="32.2267" rx="12.4645" ry="19.2129" transform="rotate(27.5371 31.6982 32.2267)" fill="#3C3D75"/>
</g>
<defs>
<filter id="filter0_d" x="56.6509" y="-70.6333" width="65.7459" height="150.178" filterUnits="userSpaceOnUse" color-interpolation-filters="sRGB">
<feFlood flood-opacity="0" result="BackgroundImageFix"/>
<feColorMatrix in="SourceAlpha" type="matrix" values="0 0 0 0 0 0 0 0 0 0 0 0 0 0 0 0 0 0 127 0"/>
<feOffset dx="4" dy="4"/>
<feGaussianBlur stdDeviation="5"/>
<feColorMatrix type="matrix" values="0 0 0 0 0 0 0 0 0 0 0 0 0 0 0 0 0 0 0.25 0"/>
<feBlend mode="normal" in2="BackgroundImageFix" result="effect1_dropShadow"/>
<feBlend mode="normal" in="SourceGraphic" in2="effect1_dropShadow" result="shape"/>
</filter>
<filter id="filter1_d" x="54.0664" y="31.2192" width="42.7136" height="48.8156" filterUnits="userSpaceOnUse" color-interpolation-filters="sRGB">
<feFlood flood-opacity="0" result="BackgroundImageFix"/>
<feColorMatrix in="SourceAlpha" type="matrix" values="0 0 0 0 0 0 0 0 0 0 0 0 0 0 0 0 0 0 127 0"/>
<feOffset dx="4" dy="4"/>
<feGaussianBlur stdDeviation="5"/>
<feColorMatrix type="matrix" values="0 0 0 0 0 0 0 0 0 0 0 0 0 0 0 0 0 0 0.25 0"/>
<feBlend mode="normal" in2="BackgroundImageFix" result="effect1_dropShadow"/>
<feBlend mode="normal" in="SourceGraphic" in2="effect1_dropShadow" result="shape"/>
</filter>
<filter id="filter2_d" x="18.4563" y="8.13184" width="76.1162" height="76.6901" filterUnits="userSpaceOnUse" color-interpolation-filters="sRGB">
<feFlood flood-opacity="0" result="BackgroundImageFix"/>
<feColorMatrix in="SourceAlpha" type="matrix" values="0 0 0 0 0 0 0 0 0 0 0 0 0 0 0 0 0 0 127 0"/>
<feOffset dx="4" dy="4"/>
<feGaussianBlur stdDeviation="5"/>
<feColorMatrix type="matrix" values="0 0 0 0 0 0 0 0 0 0 0 0 0 0 0 0 0 0 0.25 0"/>
<feBlend mode="normal" in2="BackgroundImageFix" result="effect1_dropShadow"/>
<feBlend mode="normal" in="SourceGraphic" in2="effect1_dropShadow" result="shape"/>
</filter>
<filter id="filter3_d" x="91.6064" y="-73.1636" width="136.337" height="174.837" filterUnits="userSpaceOnUse" color-interpolation-filters="sRGB">
<feFlood flood-opacity="0" result="BackgroundImageFix"/>
<feColorMatrix in="SourceAlpha" type="matrix" values="0 0 0 0 0 0 0 0 0 0 0 0 0 0 0 0 0 0 127 0"/>
<feOffset dx="4" dy="4"/>
<feGaussianBlur stdDeviation="5"/>
<feColorMatrix type="matrix" values="0 0 0 0 0 0 0 0 0 0 0 0 0 0 0 0 0 0 0.25 0"/>
<feBlend mode="normal" in2="BackgroundImageFix" result="effect1_dropShadow"/>
<feBlend mode="normal" in="SourceGraphic" in2="effect1_dropShadow" result="shape"/>
</filter>
<filter id="filter4_d" x="140" y="101.011" width="138.038" height="109.856" filterUnits="userSpaceOnUse" color-interpolation-filters="sRGB">
<feFlood flood-opacity="0" result="BackgroundImageFix"/>
<feColorMatrix in="SourceAlpha" type="matrix" values="0 0 0 0 0 0 0 0 0 0 0 0 0 0 0 0 0 0 127 0"/>
<feOffset dx="4" dy="4"/>
<feGaussianBlur stdDeviation="5"/>
<feColorMatrix type="matrix" values="0 0 0 0 0 0 0 0 0 0 0 0 0 0 0 0 0 0 0.25 0"/>
<feBlend mode="normal" in2="BackgroundImageFix" result="effect1_dropShadow"/>
<feBlend mode="normal" in="SourceGraphic" in2="effect1_dropShadow" result="shape"/>
</filter>
<filter id="filter5_d" x="143.56" y="74.665" width="131.778" height="90.8558" filterUnits="userSpaceOnUse" color-interpolation-filters="sRGB">
<feFlood flood-opacity="0" result="BackgroundImageFix"/>
<feColorMatrix in="SourceAlpha" type="matrix" values="0 0 0 0 0 0 0 0 0 0 0 0 0 0 0 0 0 0 127 0"/>
<feOffset dx="4" dy="4"/>
<feGaussianBlur stdDeviation="5"/>
<feColorMatrix type="matrix" values="0 0 0 0 0 0 0 0 0 0 0 0 0 0 0 0 0 0 0.25 0"/>
<feBlend mode="normal" in2="BackgroundImageFix" result="effect1_dropShadow"/>
<feBlend mode="normal" in="SourceGraphic" in2="effect1_dropShadow" result="shape"/>
</filter>
<filter id="filter6_d" x="37.0044" y="52.999" width="42.4761" height="44.3193" filterUnits="userSpaceOnUse" color-interpolation-filters="sRGB">
<feFlood flood-opacity="0" result="BackgroundImageFix"/>
<feColorMatrix in="SourceAlpha" type="matrix" values="0 0 0 0 0 0 0 0 0 0 0 0 0 0 0 0 0 0 127 0"/>
<feOffset dx="4" dy="4"/>
<feGaussianBlur stdDeviation="5"/>
<feColorMatrix type="matrix" values="0 0 0 0 0 0 0 0 0 0 0 0 0 0 0 0 0 0 0.25 0"/>
<feBlend mode="normal" in2="BackgroundImageFix" result="effect1_dropShadow"/>
<feBlend mode="normal" in="SourceGraphic" in2="effect1_dropShadow" result="shape"/>
</filter>
<filter id="filter7_d" x="11.5183" y="8.2373" width="48.3598" height="55.9788" filterUnits="userSpaceOnUse" color-interpolation-filters="sRGB">
<feFlood flood-opacity="0" result="BackgroundImageFix"/>
<feColorMatrix in="SourceAlpha" type="matrix" values="0 0 0 0 0 0 0 0 0 0 0 0 0 0 0 0 0 0 127 0"/>
<feOffset dx="4" dy="4"/>
<feGaussianBlur stdDeviation="5"/>
<feColorMatrix type="matrix" values="0 0 0 0 0 0 0 0 0 0 0 0 0 0 0 0 0 0 0.25 0"/>
<feBlend mode="normal" in2="BackgroundImageFix" result="effect1_dropShadow"/>
<feBlend mode="normal" in="SourceGraphic" in2="effect1_dropShadow" result="shape"/>
</filter>
</defs>
</svg>

<svg width="211" height="211" fill="none" xmlns="http://www.w3.org/2000/svg"><path d="M69.103 33.337l12.375-21.64 12.753 4.9L80.825 40.04l-11.722-6.703z" fill="#3C3D75"/><g filter="url(#filter0_d)"><path d="M65.188-7.942l32.419-56.691 10.79 13.056-22.39 39.152C83.268-7.63 84.93-1.522 89.726 1.22l3.595 2.056c4.795 2.742 6.459 8.851 3.717 13.645L69.931 64.323l-7.28 1.221 22.364-39.108c2.742-4.794 1.078-10.904-3.716-13.645L68.904 5.703c-4.794-2.741-6.458-8.85-3.716-13.645z" fill="#6CB2C3"/></g><g filter="url(#filter1_d)"><ellipse cx="71.423" cy="51.627" rx="9.983" ry="15.388" transform="rotate(27.537 71.423 51.627)" fill="#3C3D75"/></g><g filter="url(#filter2_d)"><path d="M24.456 49.686L37.61 14.132l42.83 24.492s1.287 6.12-4.128 15.588c-4.64 8.115-11.083 11.012-11.083 11.012l-20.551 5.598-20.22-21.136z" fill="#6CB2C3"/></g><g filter="url(#filter3_d)"><path d="M106.943-49.91l-9.337-14.723 96.801-2.527a10 10 0 016.555 2.226l9.276 7.514a10 10 0 013.161 11.024l-46.14 134.069-11.722-6.703 35.858-117.06c1.955-6.38-2.769-12.848-9.442-12.927l-75.01-.892z" fill="#6CB2C3"/></g><g filter="url(#filter4_d)"><path d="M149.018 118.522c6.265-10.956 20.226-14.758 31.181-8.493l81.32 46.503a4.999 4.999 0 011.859 6.822l-17.724 30.994a5 5 0 01-6.822 1.858l-81.32-46.503c-10.956-6.265-14.759-20.225-8.494-31.181z" fill="#6CB2C3"/></g><g filter="url(#filter5_d)"><rect x="154.957" y="78.843" width="124.645" height="14.542" rx="5" transform="rotate(29.763 154.957 78.843)" fill="#6CB2C3"/></g><g filter="url(#filter6_d)"><path d="M47.7 83.318l-4.696-20.035s3.175-3.444 8.376-4.185c5.862-.835 10.95 3.869 10.95 3.869l3.15 18.553-17.78 1.798z" fill="#6CB2C3"/></g><ellipse cx="56.425" cy="81.847" rx="5.453" ry="9.078" transform="rotate(80.45 56.425 81.847)" fill="#3C3D75"/><g filter="url(#filter7_d)"><ellipse cx="31.698" cy="32.227" rx="12.464" ry="19.213" transform="rotate(27.537 31.698 32.227)" fill="#3C3D75"/></g><defs><filter id="filter0_d" x="56.651" y="-70.633" width="65.746" height="150.178" filterUnits="userSpaceOnUse" color-interpolation-filters="sRGB"><feFlood flood-opacity="0" result="BackgroundImageFix"/><feColorMatrix in="SourceAlpha" values="0 0 0 0 0 0 0 0 0 0 0 0 0 0 0 0 0 0 127 0"/><feOffset dx="4" dy="4"/><feGaussianBlur stdDeviation="5"/><feColorMatrix values="0 0 0 0 0 0 0 0 0 0 0 0 0 0 0 0 0 0 0.25 0"/><feBlend in2="BackgroundImageFix" result="effect1_dropShadow"/><feBlend in="SourceGraphic" in2="effect1_dropShadow" result="shape"/></filter><filter id="filter1_d" x="54.066" y="31.219" width="42.714" height="48.816" filterUnits="userSpaceOnUse" color-interpolation-filters="sRGB"><feFlood flood-opacity="0" result="BackgroundImageFix"/><feColorMatrix in="SourceAlpha" values="0 0 0 0 0 0 0 0 0 0 0 0 0 0 0 0 0 0 127 0"/><feOffset dx="4" dy="4"/><feGaussianBlur stdDeviation="5"/><feColorMatrix values="0 0 0 0 0 0 0 0 0 0 0 0 0 0 0 0 0 0 0.25 0"/><feBlend in2="BackgroundImageFix" result="effect1_dropShadow"/><feBlend in="SourceGraphic" in2="effect1_dropShadow" result="shape"/></filter><filter id="filter2_d" x="18.456" y="8.132" width="76.116" height="76.69" filterUnits="userSpaceOnUse" color-interpolation-filters="sRGB"><feFlood flood-opacity="0" result="BackgroundImageFix"/><feColorMatrix in="SourceAlpha" values="0 0 0 0 0 0 0 0 0 0 0 0 0 0 0 0 0 0 127 0"/><feOffset dx="4" dy="4"/><feGaussianBlur stdDeviation="5"/><feColorMatrix values="0 0 0 0 0 0 0 0 0 0 0 0 0 0 0 0 0 0 0.25 0"/><feBlend in2="BackgroundImageFix" result="effect1_dropShadow"/><feBlend in="SourceGraphic" in2="effect1_dropShadow" result="shape"/></filter><filter id="filter3_d" x="91.606" y="-73.164" width="136.337" height="174.837" filterUnits="userSpaceOnUse" color-interpolation-filters="sRGB"><feFlood flood-opacity="0" result="BackgroundImageFix"/><feColorMatrix in="SourceAlpha" values="0 0 0 0 0 0 0 0 0 0 0 0 0 0 0 0 0 0 127 0"/><feOffset dx="4" dy="4"/><feGaussianBlur stdDeviation="5"/><feColorMatrix values="0 0 0 0 0 0 0 0 0 0 0 0 0 0 0 0 0 0 0.25 0"/><feBlend in2="BackgroundImageFix" result="effect1_dropShadow"/><feBlend in="SourceGraphic" in2="effect1_dropShadow" result="shape"/></filter><filter id="filter4_d" x="140" y="101.011" width="138.038" height="109.856" filterUnits="userSpaceOnUse" color-interpolation-filters="sRGB"><feFlood flood-opacity="0" result="BackgroundImageFix"/><feColorMatrix in="SourceAlpha" values="0 0 0 0 0 0 0 0 0 0 0 0 0 0 0 0 0 0 127 0"/><feOffset dx="4" dy="4"/><feGaussianBlur stdDeviation="5"/><feColorMatrix values="0 0 0 0 0 0 0 0 0 0 0 0 0 0 0 0 0 0 0.25 0"/><feBlend in2="BackgroundImageFix" result="effect1_dropShadow"/><feBlend in="SourceGraphic" in2="effect1_dropShadow" result="shape"/></filter><filter id="filter5_d" x="143.56" y="74.665" width="131.778" height="90.856" filterUnits="userSpaceOnUse" color-interpolation-filters="sRGB"><feFlood flood-opacity="0" result="BackgroundImageFix"/><feColorMatrix in="SourceAlpha" values="0 0 0 0 0 0 0 0 0 0 0 0 0 0 0 0 0 0 127 0"/><feOffset dx="4" dy="4"/><feGaussianBlur stdDeviation="5"/><feColorMatrix values="0 0 0 0 0 0 0 0 0 0 0 0 0 0 0 0 0 0 0.25 0"/><feBlend in2="BackgroundImageFix" result="effect1_dropShadow"/><feBlend in="SourceGraphic" in2="effect1_dropShadow" result="shape"/></filter><filter id="filter6_d" x="37.004" y="52.999" width="42.476" height="44.319" filterUnits="userSpaceOnUse" color-interpolation-filters="sRGB"><feFlood flood-opacity="0" result="BackgroundImageFix"/><feColorMatrix in="SourceAlpha" values="0 0 0 0 0 0 0 0 0 0 0 0 0 0 0 0 0 0 127 0"/><feOffset dx="4" dy="4"/><feGaussianBlur stdDeviation="5"/><feColorMatrix values="0 0 0 0 0 0 0 0 0 0 0 0 0 0 0 0 0 0 0.25 0"/><feBlend in2="BackgroundImageFix" result="effect1_dropShadow"/><feBlend in="SourceGraphic" in2="effect1_dropShadow" result="shape"/></filter><filter id="filter7_d" x="11.518" y="8.237" width="48.36" height="55.979" filterUnits="userSpaceOnUse" color-interpolation-filters="sRGB"><feFlood flood-opacity="0" result="BackgroundImageFix"/><feColorMatrix in="SourceAlpha" values="0 0 0 0 0 0 0 0 0 0 0 0 0 0 0 0 0 0 127 0"/><feOffset dx="4" dy="4"/><feGaussianBlur stdDeviation="5"/><feColorMatrix values="0 0 0 0 0 0 0 0 0 0 0 0 0 0 0 0 0 0 0.25 0"/><feBlend in2="BackgroundImageFix" result="effect1_dropShadow"/><feBlend in="SourceGraphic" in2="effect1_dropShadow" result="shape"/></filter></defs></svg>
